<?xml version="1.0" encoding="UTF-8"?>
<map version="1.8" tiledversion="1.8.2" orientation="orthogonal" renderorder="right-down" width="1" height="1" tilewidth="16" tileheight="16" infinite="0" nextlayerid="6" nextobjectid="3">
 <tileset firstgid="1" source="FarmHouses.tsx"/>
 <tileset firstgid="460" name="v16_Shadows" tilewidth="16" tileheight="16" tilecount="475" columns="19">
  <image source="spring_Shadows.png" width="304" height="400"/>
 </tileset>
 <objectgroup id="3" name="Objects">
  <object id="2" name="Door" x="0" y="0" width="16" height="16">
   <properties>
    <property name="destId" type="int" value="1"/>
    <property name="id" type="int" value="1"/>
   </properties>
  </object>
 </objectgroup>
</map>
